Icons/rename_me_nova_settings.svg

<svg viewBox="0 0 48 48" xmlns:xlink="http://www.w3.org/1999/xlink">
 <defs>
  <linearGradient id="0">
   <stop stop-opacity="0"/>
   <stop offset="1"/>
  </linearGradient>
  <linearGradient xlink:href="#0" id="1" gradientUnits="userSpaceOnUse" gradientTransform="translate(4e-7,-48)" y1="47" x2="0" y2="1"/>
  <clipPath id="2">
   <g transform="translate(0,-1004.3622)">
    <rect rx="4" y="1005.36" x="1" height="46" width="46" fill="#1890d0"/>
   </g>
  </clipPath>
  <clipPath id="3">
   <g transform="translate(0,-1004.3622)">
    <rect rx="4" y="1005.36" x="1" height="46" width="46" fill="#1890d0"/>
   </g>
  </clipPath>
 </defs>
 <g>
  <g transform="translate(0,-1004.3622)">
   <path d="m 5,1006.3622 c -2.216,0 -4,1.784 -4,4 l 0,37.25 c 0,2.216 1.784,4 4,4 l 38,0 c 2.216,0 4,-1.784 4,-4 l 0,-37.25 c 0,-2.216 -1.784,-4 -4,-4 l -38,0 z m -4,41.5 0,0.5 c 0,2.216 1.784,4 4,4 l 38,0 c 2.216,0 4,-1.784 4,-4 l 0,-0.5 c 0,2.216 -1.784,4 -4,4 l -38,0 c -2.216,0 -4,-1.784 -4,-4 z" opacity="0.02"/>
   <path d="m 1,1047.6122 0,0.25 c 0,2.216 1.784,4 4,4 l 38,0 c 2.216,0 4,-1.784 4,-4 l 0,-0.25 c 0,2.216 -1.784,4 -4,4 l -38,0 c -2.216,0 -4,-1.784 -4,-4 z" opacity="0.05"/>
   <rect width="46" height="46" x="1" y="1005.61" rx="4" opacity="0.1"/>
  </g>
 </g>
 <g>
  <g transform="translate(0,-1004.3622)">
   <rect rx="4" y="1005.36" x="1" height="46" width="46" fill="#eeeeee"/>
  </g>
 </g>
 <g>
  <rect transform="scale(1,-1)" width="46" height="46" x="1" y="-46.998" rx="4" opacity="0.1" fill="url(#1)"/>
 </g>
 <g>
  <g clip-path="url(#2)">
   <g opacity="0.1">
    <g>
     <path d="M 5 18 L 10 24 L 38 36 L 43 30 L 38 24 L 10 12 Z M 5 18 " fill-opacity="0.8"/>
     <path d="M 5 30 L 10 24 L 38 12 L 43 18 L 38 24 L 10 36 Z M 5 30 " fill-opacity="0.8"/>
     <path d="M 14 16 L 24 5 L 34 16 L 34 32 L 24 43 L 14 32 Z M 14 16 "/>
     <path d="M 14 16 L 34 16 L 34 32 L 27 32 L 27 35 L 30 32 L 14 32 Z M 14 16 " fill-opacity="0.2" id="4"/>
     <path d="M 17 30.003906 L 31 30.003906 L 31 28.003906 L 17 28.003906 Z M 17 30.003906 "/>
     <path d="M 27 27 C 27.550781 27 28 27.449219 28 28 L 28 30 C 28 30.554688 27.550781 31 27 31 C 26.449219 31 26 30.554688 26 30 L 26 28 C 26 27.449219 26.449219 27 27 27 Z M 27 27 "/>
     <path d="M 17 25.003906 L 31 25.003906 L 31 23.003906 L 17 23.003906 Z M 17 25.003906 "/>
     <path d="M 20.996094 22 C 21.550781 22 21.996094 22.449219 21.996094 23 L 21.996094 25 C 21.996094 25.554688 21.550781 26 20.996094 26 C 20.445312 26 20 25.554688 20 25 L 20 23 C 20 22.449219 20.445312 22 20.996094 22 Z M 20.996094 22 "/>
     <path d="M 17 20.003906 L 31 20.003906 L 31 18.003906 L 17 18.003906 Z M 17 20.003906 "/>
     <path d="M 27 17 C 27.550781 17 28 17.449219 28 18 L 28 20.003906 C 28 20.554688 27.550781 21 27 21 C 26.449219 21 26 20.554688 26 20.003906 L 26 18 C 26 17.449219 26.449219 17 27 17 Z M 27 17 "/>
    </g>
   </g>
  </g>
 </g>
 <g>
  <g clip-path="url(#3)">
   <g transform="translate(0,-1)">
    <g>
     <path d="M 5 18 L 10 24 L 38 36 L 43 30 L 38 24 L 10 12 Z M 5 18 " fill="#85ced5" fill-opacity="0.8"/>
     <path d="M 5 30 L 10 24 L 38 12 L 43 18 L 38 24 L 10 36 Z M 5 30 " fill="#2cafed" fill-opacity="0.8"/>
     <path d="M 14 16 L 24 5 L 34 16 L 34 32 L 24 43 L 14 32 Z M 14 16 " fill="#e73621"/>
     <use xlink:href="#4"/>
     <path d="M 17 30.003906 L 31 30.003906 L 31 28.003906 L 17 28.003906 Z M 17 30.003906 " fill="#f9f9f9"/>
     <path d="M 27 27 C 27.550781 27 28 27.449219 28 28 L 28 30 C 28 30.554688 27.550781 31 27 31 C 26.449219 31 26 30.554688 26 30 L 26 28 C 26 27.449219 26.449219 27 27 27 Z M 27 27 " fill="#f9f9f9"/>
     <path d="M 17 25.003906 L 31 25.003906 L 31 23.003906 L 17 23.003906 Z M 17 25.003906 " fill="#f9f9f9"/>
     <path d="M 20.996094 22 C 21.550781 22 21.996094 22.449219 21.996094 23 L 21.996094 25 C 21.996094 25.554688 21.550781 26 20.996094 26 C 20.445312 26 20 25.554688 20 25 L 20 23 C 20 22.449219 20.445312 22 20.996094 22 Z M 20.996094 22 " fill="#f9f9f9"/>
     <path d="M 17 20.003906 L 31 20.003906 L 31 18.003906 L 17 18.003906 Z M 17 20.003906 " fill="#f9f9f9"/>
     <path d="M 27 17 C 27.550781 17 28 17.449219 28 18 L 28 20.003906 C 28 20.554688 27.550781 21 27 21 C 26.449219 21 26 20.554688 26 20.003906 L 26 18 C 26 17.449219 26.449219 17 27 17 Z M 27 17 " fill="#f9f9f9"/>
    </g>
   </g>
  </g>
 </g>
 <g>
  <g transform="translate(0,-1004.3622)">
   <path d="m 1,1043.3622 0,4 c 0,2.216 1.784,4 4,4 l 38,0 c 2.216,0 4,-1.784 4,-4 l 0,-4 c 0,2.216 -1.784,4 -4,4 l -38,0 c -2.216,0 -4,-1.784 -4,-4 z" opacity="0.1"/>
  </g>
 </g>
</svg>

<svg viewBox="0 0 48 48" xmlns:xlink="http://www.w3.org/1999/xlink"><defs><linearGradient id="linearGradient3764" x1="1" x2="47" gradientUnits="userSpaceOnUse" gradientTransform="translate(-48.000001,0.00221467)"><stop stop-color="#e4e4e4" stop-opacity="1"/><stop offset="1" stop-color="#eee" stop-opacity="1"/></linearGradient><clipPath id="clipPath-971998094"><g transform="translate(0,-1004.3622)"><rect rx="4" y="1005.36" x="1" height="46" width="46" fill="#1890d0"/></g></clipPath><clipPath id="clipPath-985801658"><g transform="translate(0,-1004.3622)"><rect rx="4" y="1005.36" x="1" height="46" width="46" fill="#1890d0"/></g></clipPath></defs><g><path d="m 1 43 l 0 0.25 c 0 2.216 1.784 4 4 4 l 38 0 c 2.216 0 4 -1.784 4 -4 l 0 -0.25 c 0 2.216 -1.784 4 -4 4 l -38 0 c -2.216 0 -4 -1.784 -4 -4 z m 0 0.5 l 0 0.5 c 0 2.216 1.784 4 4 4 l 38 0 c 2.216 0 4 -1.784 4 -4 l 0 -0.5 c 0 2.216 -1.784 4 -4 4 l -38 0 c -2.216 0 -4 -1.784 -4 -4 z" opacity="0.02"/><path d="m 1 43.25 l 0 0.25 c 0 2.216 1.784 4 4 4 l 38 0 c 2.216 0 4 -1.784 4 -4 l 0 -0.25 c 0 2.216 -1.784 4 -4 4 l -38 0 c -2.216 0 -4 -1.784 -4 -4 z" opacity="0.05"/><path d="m 1 43 l 0 0.25 c 0 2.216 1.784 4 4 4 l 38 0 c 2.216 0 4 -1.784 4 -4 l 0 -0.25 c 0 2.216 -1.784 4 -4 4 l -38 0 c -2.216 0 -4 -1.784 -4 -4 z" opacity="0.1"/></g><g><rect width="46" height="46" x="-47" y="1" rx="4" transform="matrix(0,-1,1,0,0,0)" fill="url(#linearGradient3764)" fill-opacity="1"/></g><g><g clip-path="url(#clipPath-971998094)"><g opacity="0.1"><!-- color: #eeeeee --><g><path d="m 5 18 l 5 6 l 28 12 l 5 -6 l -5 -6 l -28 -12 m -5 6" fill-opacity="0.8" fill="#000"/><path d="m 5 30 l 5 -6 l 28 -12 l 5 6 l -5 6 l -28 12 m -5 -6" fill-opacity="0.8" fill="#000"/><path d="M 14 16 L 24 5 L 34 16 L 34 32 L 24 43 L 14 32 Z M 14 16 " fill="#000"/><path d="m 14 16 l 20 0 l 0 16 l -7 0 l 0 3 l 3 -3 l -16 0 m 0 -16" fill-opacity="0.2" id="SVGCleanerId_0"/><path d="m 17 30 l 14 0 l 0 -2 l -14 0 m 0 2" fill="#000"/><path d="m 27 27 c 0.551 0 1 0.449 1 1 l 0 2 c 0 0.555 -0.449 1 -1 1 c -0.551 0 -1 -0.445 -1 -1 l 0 -2 c 0 -0.551 0.449 -1 1 -1 m 0 0" fill="#000"/><path d="m 17 25 l 14 0 l 0 -2 l -14 0 m 0 2" fill="#000"/><path d="m 20.996 22 c 0.555 0 1 0.449 1 1 l 0 2 c 0 0.555 -0.445 1 -1 1 c -0.551 0 -0.996 -0.445 -0.996 -1 l 0 -2 c 0 -0.551 0.445 -1 0.996 -1 m 0 0" fill="#000"/><path d="m 17 20 l 14 0 l 0 -2 l -14 0 m 0 2" fill="#000"/><path d="m 27 17 c 0.551 0 1 0.449 1 1 l 0 2 c 0 0.551 -0.449 0.996 -1 0.996 c -0.551 0 -1 -0.445 -1 -0.996 l 0 -2 c 0 -0.551 0.449 -1 1 -1 m 0 0" fill="#000"/></g></g></g></g><g><g clip-path="url(#clipPath-985801658)"><g transform="translate(0,-1)"><!-- color: #eeeeee --><g><path d="m 5 18 l 5 6 l 28 12 l 5 -6 l -5 -6 l -28 -12 m -5 6" fill="#85ced5" fill-opacity="0.8"/><path d="m 5 30 l 5 -6 l 28 -12 l 5 6 l -5 6 l -28 12 m -5 -6" fill="#2cafed" fill-opacity="0.8"/><path d="M 14 16 L 24 5 L 34 16 L 34 32 L 24 43 L 14 32 Z M 14 16 " fill="#e73621"/><use xlink:href="#SVGCleanerId_0"/><path d="m 17 30 l 14 0 l 0 -2 l -14 0 m 0 2" fill="#f9f9f9"/><path d="m 27 27 c 0.551 0 1 0.449 1 1 l 0 2 c 0 0.555 -0.449 1 -1 1 c -0.551 0 -1 -0.445 -1 -1 l 0 -2 c 0 -0.551 0.449 -1 1 -1 m 0 0" fill="#f9f9f9"/><path d="m 17 25 l 14 0 l 0 -2 l -14 0 m 0 2" fill="#f9f9f9"/><path d="m 20.996 22 c 0.555 0 1 0.449 1 1 l 0 2 c 0 0.555 -0.445 1 -1 1 c -0.551 0 -0.996 -0.445 -0.996 -1 l 0 -2 c 0 -0.551 0.445 -1 0.996 -1 m 0 0" fill="#f9f9f9"/><path d="m 17 20 l 14 0 l 0 -2 l -14 0 m 0 2" fill="#f9f9f9"/><path d="m 27 17 c 0.551 0 1 0.449 1 1 l 0 2 c 0 0.551 -0.449 0.996 -1 0.996 c -0.551 0 -1 -0.445 -1 -0.996 l 0 -2 c 0 -0.551 0.449 -1 1 -1 m 0 0" fill="#f9f9f9"/></g></g></g></g><g><g transform="translate(0,-1004.3622)"><path d="m 1 1043.36 0 4 c 0 2.216 1.784 4 4 4 l 38 0 c 2.216 0 4 -1.784 4 -4 l 0 -4 c 0 2.216 -1.784 4 -4 4 l -38 0 c -2.216 0 -4 -1.784 -4 -4 z" opacity="0.1"/></g></g></svg>
